**kern	**kern	**dynam
*part1	*part1	*part1
*staff2	*staff1	*
*I"Piano	*	*
*clefF4	*clefG2	*
*k[f#c#g#]	*k[f#c#g#]	*
=1	=1	=1
*	*^	*
[2FFF# [2FF#	8.aL 8.cc#	2f#	.
.	16bJk 16dd	.	.
.	4cc# 4ee	.	.
=	=	=	=
2FFF#] 2FF#]	(4b 4dd	2f#	.
.	4g# 4b	.	.
=	=	=	=
2FFF# 2FF#	2a)	2f#	.
*	*v	*v	*
=	=	=
(4FF# 4F#	4d 4g# 4b	.
8EEL 8E	4d 4g# 4b	.
8DDJ 8D	.	.
=	=	=
8.CC#L 8.C#	4e 4a 4cc#	.
16DDJk 16D	.	.
4EE) 4E	4c# 4e	.
=	=	=
(4DD 4D	4B 4f# 4g#	.
8CC#L 8C#	4B 4f# 4g#	.
8BBBJ 8BB	.	.
=	=	=
8.AAAL 8.AA	[2c# [2f# [2a	.
16BBBJk) 16BB	.	.
[4CC# [4C#	.	.
=	=	=
2CC#] 2C#]	2c#] 2f#] 2a]	.
=	=	=
(4BBB 4BB	2B 2d 2f#	>
4GGG#) 4GG#	.	.
=:|!	=:|!	=:|!
(4BBB 4BB	2B 2d 2f#	] p >
4GGG# 4GG#	.	.
=	=	=
2FFF#) 2FF#	2A 2c# 2f#	] pp
==	==	==
*-	*-	*-
!!!system-decoration: {(s1,s2)}
